frontend/public/svg/interface/center-align.svg

<svg width="94" height="73" viewBox="0 0 94 73" fill="none" xmlns="http://www.w3.org/2000/svg">
<g clip-path="url(#clip0)">
<path d="M13.9081 72.3908C11.0791 72.3908 8.8517 72.456 6.63072 72.3634C5.41377 72.3223 4.20813 72.1144 3.04729 71.7462C1.34533 71.1837 0.594217 69.942 0.864112 68.4801C0.947622 67.8068 1.27913 67.1889 1.79375 66.7476C2.30836 66.307 2.96883 66.0743 3.64556 66.0965C6.53138 65.9055 9.41581 65.7008 12.2986 65.4818C19.0622 64.9755 25.8166 64.422 32.5802 63.9573C41.5648 63.3394 50.5496 62.689 59.5433 62.2373C67.0955 61.8586 74.6597 61.6624 82.2207 61.5659C84.4364 61.6393 86.6379 61.9451 88.7892 62.4784C90.129 62.7488 91.3015 63.4496 91.4088 65.0954C91.5103 66.6531 90.6661 67.593 89.3758 68.2343C86.8642 69.4525 84.1087 70.0789 81.318 70.0665C76.3103 70.1206 71.3026 70.0867 66.3021 70.2464C54.4086 70.6257 42.5168 71.0579 30.6266 71.5422C24.8522 71.7716 19.0803 72.1242 13.9081 72.3908Z" fill="black"/>
<path d="M46.2635 25.9364C34.1839 26.452 21.0703 27.0126 7.95798 27.5692C7.17757 27.6024 6.39707 27.648 5.6238 27.6063C4.28733 27.5333 3.26252 26.9766 2.92889 25.5616C2.72807 24.9142 2.76685 24.2159 3.03812 23.5948C3.3094 22.9737 3.79499 22.4715 4.40583 22.1802C5.39087 21.6707 6.4629 21.3521 7.56582 21.241C14.7567 20.5468 21.9464 19.5405 29.1536 19.373C48.0586 18.9324 66.9719 18.8514 85.8828 18.6865C87.5431 18.7168 89.195 18.9326 90.8072 19.3299C91.4732 19.4719 92.0709 19.8358 92.504 20.3621C92.9371 20.8885 93.1791 21.5464 93.1908 22.2284C93.2792 22.9053 93.1309 23.592 92.7706 24.1714C92.4104 24.7507 91.8602 25.1868 91.215 25.4052C89.7595 25.911 88.2332 26.1824 86.6925 26.2094C81.6848 26.2133 76.6816 25.9807 71.6753 25.9488C63.5524 25.8992 55.4302 25.9364 46.2635 25.9364Z" fill="black"/>
<path d="M46.987 48.2532C42.7734 48.2532 38.5591 48.2949 34.3461 48.2323C32.6862 48.2076 31.0307 48.0525 29.395 47.7683C27.8589 47.5004 26.7579 46.595 26.6421 44.8847C26.5413 43.3947 27.6424 42.0383 29.3788 41.5606C30.0266 41.4112 30.6891 41.337 31.3538 41.3391C41.109 40.993 50.8584 40.6286 60.6124 40.3574C61.9388 40.3581 63.2552 40.5893 64.5029 41.0406C65.2544 41.2754 65.9177 41.7326 66.4048 42.3521C66.8926 42.9715 67.1813 43.7242 67.2346 44.5113C67.3927 46.0058 66.3014 47.6242 64.5029 48.2994C63.3688 48.7258 62.1665 48.9409 60.9552 48.9342C56.298 48.8723 51.6428 48.6788 46.9863 48.5341C46.9863 48.4403 46.987 48.3464 46.987 48.2532Z" fill="black"/>
<path d="M49.25 7.65769C44.3594 7.51364 39.4674 7.39704 34.5781 7.2015C33.3585 7.13254 32.1491 6.94007 30.9681 6.62721C30.3011 6.48917 29.7076 6.11091 29.3002 5.56392C28.8927 5.01693 28.6993 4.33919 28.7568 3.65901C28.7683 2.97846 29.0071 2.32143 29.4351 1.79292C29.8631 1.26441 30.4555 0.89492 31.1177 0.74355C31.9849 0.552524 32.8728 0.472591 33.76 0.505656C43.3247 0.344013 52.8893 0.175243 62.4553 0.0761719C63.8968 0.100348 65.3323 0.271523 66.7391 0.58713C67.4649 0.701347 68.1283 1.06556 68.6147 1.61708C69.1019 2.16861 69.3815 2.87293 69.4056 3.6088C69.535 4.33598 69.4088 5.08561 69.0498 5.73045C68.6902 6.37528 68.1192 6.87561 67.4337 7.14669C65.9945 7.70879 64.4697 8.02034 62.9256 8.06772C58.3732 8.18309 53.8102 8.10937 49.2519 8.10937C49.2506 7.96038 49.25 7.80981 49.25 7.65769Z" fill="black"/>
</g>
<defs>
<clipPath id="clip0">
<rect width="93" height="73" fill="white" transform="translate(0.777344)"/>
</clipPath>
</defs>
</svg>

<svg xmlns="http://www.w3.org/2000/svg" width="94" height="73" fill="none" viewBox="0 0 94 73"><g fill="#000" clip-path="url(#a)"><path d="M13.908 72.39c-2.829 0-5.056.066-7.277-.027a13.3 13.3 0 0 1-3.584-.617C1.345 71.184.594 69.942.864 68.48a2.71 2.71 0 0 1 2.781-2.384 891 891 0 0 0 8.654-.614c6.763-.507 13.518-1.06 20.281-1.525 8.985-.618 17.97-1.268 26.963-1.72 7.553-.378 15.117-.575 22.678-.671 2.215.073 4.417.38 6.568.912 1.34.27 2.513.972 2.62 2.617.101 1.558-.743 2.498-2.033 3.14a18.3 18.3 0 0 1-8.058 1.832c-5.008.054-10.015.02-15.016.18q-17.84.568-35.675 1.295c-5.775.23-11.547.582-16.719.849m32.356-46.455c-12.08.516-25.194 1.077-38.306 1.633-.78.033-1.56.079-2.334.037-1.337-.073-2.361-.63-2.695-2.044a2.824 2.824 0 0 1 1.477-3.382 8.8 8.8 0 0 1 3.16-.939c7.19-.694 14.38-1.7 21.588-1.868 18.905-.44 37.818-.522 56.729-.687 1.66.03 3.312.247 4.924.644a3.01 3.01 0 0 1 2.384 2.898 2.944 2.944 0 0 1-1.976 3.177 14.6 14.6 0 0 1-4.523.804c-5.007.004-10.01-.228-15.017-.26-8.123-.05-16.245-.013-25.411-.013m.723 22.317c-4.214 0-8.428.042-12.64-.02a32 32 0 0 1-4.952-.465c-1.536-.268-2.637-1.173-2.753-2.883-.1-1.49 1-2.847 2.737-3.324a8.7 8.7 0 0 1 1.975-.222c9.755-.346 19.504-.71 29.258-.982 1.327.001 2.643.232 3.89.684a3.92 3.92 0 0 1 2.732 3.47c.159 1.495-.933 3.113-2.731 3.788a9.9 9.9 0 0 1-3.548.635c-4.657-.062-9.312-.255-13.969-.4zM49.25 7.658c-4.89-.144-9.783-.261-14.672-.457a18 18 0 0 1-3.61-.574A2.78 2.78 0 0 1 29.3 5.564a2.8 2.8 0 0 1-.543-1.905 3.05 3.05 0 0 1 2.36-2.915A10.5 10.5 0 0 1 33.76.506c9.565-.162 19.13-.33 28.695-.43 1.442.024 2.877.196 4.284.511a3.165 3.165 0 0 1 2.667 3.022 3.2 3.2 0 0 1-1.972 3.538c-1.44.562-2.964.873-4.508.92-4.553.116-9.116.042-13.674.042z"/></g><defs><clipPath id="a"><path fill="#fff" d="M.777 0h93v73h-93z"/></clipPath></defs></svg>
